svg/sun_snowflake_variant.svg

<svg xmlns="http://www.w3.org/2000/svg" viewBox="0 0 24 24"><path d="m12.92 1.58-1.74 1 1.21 2.09-.59 2.18L9 7.6 7.38 6l.04-2.41H5.43v1.83H3.59l.01 2H6l1.65 1.61-.75 2.79-2.22.58-2.09-1.2-1 1.73 1.58.91-.91 1.58 1.74 1 1.19-2.09 2.23-.58.5.51 1.4-1.4-.54-.54.75-2.78 2.79-.76.53.54 1.41-1.41-.53-.54.59-2.18L16.41 4l-1-1.75-1.58.91zM20.72 4 4 20.72 5.27 22l4.89-4.89a4.99 4.99 0 0 0 7.67-2.82c.39-1.43.1-2.93-.72-4.13L22 5.27zm-1.98 5c.44.63.79 1.38 1.01 2.19s.28 1.62.21 2.42l2.69-3.2zm.58 6.95c-.32.72-.82 1.4-1.39 1.99-.59.59-1.27 1.06-1.97 1.4l4.09.72zM9 18.71l1.41 3.95 3.18-2.71c-.78.05-1.59.02-2.4-.19-.83-.22-1.57-.59-2.19-1.05"/></svg>

<svg xmlns="http://www.w3.org/2000/svg" id="mdi-sun-snowflake-variant" viewBox="0 0 24 24"><path d="M12.92 1.58L11.18 2.58L12.39 4.67L11.8 6.85L9 7.6L7.38 6L7.42 3.59L5.43 3.59L5.43 5.42L3.59 5.42L3.6 7.42L6 7.42L7.65 9.03L6.9 11.82L4.68 12.4L2.59 11.2L1.59 12.93L3.17 13.84L2.26 15.42L4 16.42L5.19 14.33L7.42 13.75L7.92 14.26L9.32 12.86L8.78 12.32L9.53 9.54L12.32 8.78L12.85 9.32L14.26 7.91L13.73 7.37L14.32 5.19L16.41 4L15.41 2.25L13.83 3.16L12.92 1.58M20.72 4L4 20.72L5.27 22L10.16 17.11C10.63 17.43 11.15 17.68 11.71 17.83C14.38 18.55 17.12 16.96 17.83 14.29C18.22 12.86 17.93 11.36 17.11 10.16L22 5.27L20.72 4M18.74 9C19.18 9.63 19.53 10.38 19.75 11.19C19.97 12 20.03 12.81 19.96 13.61L22.65 10.41L18.74 9M19.32 15.95C19 16.67 18.5 17.35 17.93 17.94C17.34 18.53 16.66 19 15.96 19.34L20.05 20.06L19.32 15.95M9 18.71L10.41 22.66L13.59 19.95C12.81 20 12 19.97 11.19 19.76C10.36 19.54 9.62 19.17 9 18.71Z" /></svg>
